!!!COM: Scriabin, Alexander
!!!OTL@@FR: Nocturne pour la main gauche seule en ré bémol majeur
!!!OTL@@EN: Nocturne for the Left Hand Alone in Db Major
!!!OPR@@FR: Prélude et nocturne pour la main gauche seule
!!!OPR@@EN: Prelude and Nocturne for the Left Hand Alone
!!!OPS: 9
!!!ONM: 2
!!!ODT: 1894
!!!AGN: Nocturne
**kern	**kern	**dynam
*staff2	*staff1	*staff1/2
*Ipiano	*Ipiano	*
*clefF4	*clefG2	*
*k[b-e-a-d-g-]	*k[b-e-a-d-g-]	*
*D-:	*D-:	*
*M6/8	*M6/8	*
=1	=1	=1
16r	4.a-	.
16DD-LL	.	.
16AA-	.	.
16F	.	.
16A-	.	.
16d-JJ	.	.
16fLL	4gn	.
16d-	.	.
16A-	.	.
[16F	.	.
16F]	8a-	.
16AA-JJ	.	.
=2	=2	=2
16r	4.ff	.
16DD-LL	.	.
16AA-	.	.
16F	.	.
16A-	.	.
16d-JJ	.	.
16fLL	4.dd-	.
16d-	.	.
16A-	.	.
16F	.	.
16D-	.	.
16DD-JJ	.	.
=3	=3	=3
16r	4.B-- 4.g- 4.dd-	.
16GG-LL	.	.
16AA-	.	.
16BB--	.	.
16C	.	.
16D-JJ	.	.
16r	4c-X 4d- 4g- 4cc-X	.
16G-LL	.	.
16A-	.	.
[16B--	.	.
16B--]	8B-- 8g- 8b--	.
16cnJJ	.	.
!!LO:LB:g=original
=4	=4	=4
16r	4.d- 4.e- 4.g- 4.b--	.
16DD-LL	.	.
16D-	.	.
16B--	.	.
16d-	.	.
[16g-JJ	.	.
16g-LL]	4.A- 4.d- 4.a-	.
16f	.	.
16f	.	.
16en	.	.
16e	.	.
[16fJJ	.	.
=5	=5	=5
*^	*	*
4.G- 4.A- 4.c	4f]	16r	.
.	.	16a-LL	.
.	.	16b-	.
.	.	16bn	.
.	8e-	16cc	.
.	.	16ee-JJ	.
4.F 4.A-	4e-	16r	.
.	.	16a-LL	.
.	.	16b-X	.
.	.	16ccJJ	.
.	16d-	16dd-	.
.	[16d-	16r	.
=6	=6	=6	=6
4.E- 4.F 4.An	4d-]	16r	.
.	.	16fLL	.
.	.	16gn	.
.	.	[16an	.
.	8c	16a]	.
.	.	16ccJJ	.
4.D- 4.F	4c	16r	.
.	.	16fLL	.
.	.	16g	.
.	.	16aJJ	.
.	8B-	8b-	.
*v	*v	*	*
!!LO:LB:g=original
=7	=7	=7
*	*^	*
16BBBB-LL 16BBB-	8r	8r	.
16FFJJ 16F	.	.	.
4r	8d- 8a- 8dd-	16aa-LL	.
.	.	16ggn	.
.	16.a-LL 16.dd-	16.ff	.
.	32fJJk 32a-	32dd-JJk	.
4r	4.f 4.a-	4dd-	.
8r	.	8cc	.
=8	=8	=8	=8
16r	4d- 4e- 4gn	8.ccL	.
16EE-LL	.	.	.
16E-JJ	.	.	.
16r	.	16b-Jk	.
8r	8d- 8g	16dd-LL	.
.	.	16ccJJ	.
16r	4.ryy	4c 4g-X 4b-	.
16AA-LL	.	.	.
16E-	.	.	.
16F	.	.	.
16G-JJ	.	16c 16e- 16a-	.
16r	.	16A- 16a-	.
*	*v	*v	*
=9	=9	=9
16r	4.F 4.d- 4.a-	.
16DD-LL	.	.
16AA-	.	.
16F	.	.
16A-	.	.
16d-JJ	.	.
16r	4En 4d- 4gn	.
16AA-LL	.	.
16En	.	.
[16d-	.	.
16d-]	8F 8a-	.
16AA-JJ	.	.
!!LO:LB:g=original
=10	=10	=10
16r	4.d- 4.a- 4.ff	.
16DD-LL	.	.
16AA-	.	.
16F	.	.
16A-	.	.
16d-JJ	.	.
16fLL	4.A- 4.f 4.dd-	.
16d-	.	.
16A-	.	.
16F	.	.
16D-	.	.
16DD-JJ	.	.
=11	=11	=11
16r	4.B-- 4.g- 4.dd-	.
16GGG-LL 16GG-	.	.
16GGG- 16GG-	.	.
16AAA- 16AA-	.	.
24BBB-- 24BB--	.	.
24CC 24C	.	.
24DD-JJ 24D-	.	.
16r	4c-X 4d- 4g- 4cc-X	.
16GG-LL 16G-	.	.
16AA- 16A-	.	.
[16BB-- [16B--	.	.
16BB--] 16B--]	8B-- 8g- 8b--	.
16CnJJ 16cn	.	.
=12	=12	=12
4.D- 4.d-	16r	.
.	16B--LL 16g- 16b--	.
.	16B--J 16g- 16dd-	.
.	32r	.
.	32B--KL 32g- 32cc-X	.
.	16B-- 16g- 16cc-	.
.	16B--JJ 16g- 16b--	.
16g-LL	4.A- 4.d- 4.a-	.
16f	.	.
16f	.	.
16en	.	.
16e	.	.
[16fJJ	.	.
!!LO:LB:g=original
=13	=13	=13
*^	*	*
4.G- 4.A- 4.c	4f]	16r	.
.	.	16a-LL	.
.	.	16b-	.
.	.	16bn	.
.	8e-	16cc	.
.	.	16ee-JJ	.
4.F 4.A-	4e-	16r	.
.	.	16a-LL	.
.	.	16b-X	.
.	.	16ccJJ	.
.	16d-	16dd-	.
.	[16d-	16r	.
=14	=14	=14	=14
4.E- 4.F 4.An	4d-]	16r	.
.	.	16fLL	.
.	.	16gn	.
.	.	[16an	.
.	8c	16a]	.
.	.	16ccJJ	.
4.D- 4.F	4c	16r	.
.	.	16fLL	.
.	.	16g	.
.	.	16aJJ	.
.	8B-	8b-	.
*v	*v	*	*
=15	=15	=15
*	*^	*
16BBBB-LL 16BBB-	8r	8r	.
16FFJJ 16F	.	.	.
4r	8d- 8a- 8dd-	16aa-LL	.
.	.	16ggn	.
.	16.a-LL 16.dd-	16.ff	.
.	32fJJk 32a-	32dd-JJk	.
4r	4.f 4.a-	4dd-	.
8r	.	8cc	.
!!LO:LB:g=original
=16	=16	=16	=16
16r	4d- 4e- 4gn	8.ccL	.
16EE-LL	.	.	.
16E-JJ	.	.	.
16r	.	16b-Jk	.
8r	8d- 8g	16dd-LL	.
.	.	16ccJJ	.
16r	4c 4e-	4a-	.
16AA-LL	.	.	.
16E-	.	.	.
16c	.	.	.
16a-JJ	8ryy	16r	.
16r	.	16e-	.
*	*v	*v	*
=17	=17	=17
16r	[4.E- [4.A- [4.c-X [4.e-	.
16AAA-LL 16AA-	.	.
16AAA- 16AA-	.	.
16BBB- 16BB-	.	.
16BBB- 16BB-	.	.
16CC-XJJ 16C-X	.	.
4.CC- 4.C-	16E-LL] 16A-] 16c-] 16e-]	.
.	16En 16A- 16dn 16en	.
.	16E 16A- 16d 16e	.
.	16F 16A- 16d 16f	.
.	16F 16A- 16d 16f	.
.	16F#XJJ 16A- 16d 16f#X	.
=18	=18	=18
16r	[4F#X [4A- [4dn [4f#X	.
16BBB-LL	.	.
16BB-	.	.
16B-	.	.
16b-JJ	16F#LL] 16A-] 16d] 16f#]	.
16r	16GnJJ 16B- 16e- 16gn	.
16EEE-LL 16EE-	4r	.
16BB-	.	.
16Gn 16e-	.	.
16B-	.	.
16gnJJ 16ee-	16r	.
16r	16e-	.
!!LO:LB:g=original
=19	=19	=19
16r	[4.E- [4.A- [4.c-X [4.e-	.
16AAA-LL 16AA-	.	.
16AAA- 16AA-	.	.
16BBB- 16BB-	.	.
16BBB- 16BB-	.	.
16CC-XJJ 16C-X	.	.
4.CC- 4.C-	16E-LL] 16A-] 16c-] 16e-]	.
.	16En 16A- 16dn 16en	.
.	16E 16A- 16d 16e	.
.	16F 16A- 16d 16f	.
.	16F 16A- 16d 16f	.
.	16F#XJJ 16A- 16d 16f#X	.
=20	=20	=20
16r	[4F#X [4A- [4dn [4f#X	.
16BBB-LL	.	.
16BB-	.	.
16B-	.	.
16b-JJ	16F#LL] 16A-] 16d] 16f#]	.
16r	16GnJJ 16B- 16e- 16gn	.
16EEE-LL 16EE-	4r	.
16BB-	.	.
16Gn 16e-	.	.
16B-	.	.
16gnJJ 16ee-	16r	.
16r	16a-	.
=21	=21	=21
16r	[4.A- [4.d- [4.f-X [4.a-	.
16DD-LL 16D-	.	.
16DD- 16D-	.	.
16EE- 16E-	.	.
16EE- 16E-	.	.
16FF-XJJ 16F-X	.	.
4.FF- 4.F-	16A-LL] 16d-] 16f-] 16a-]	.
.	16An 16d- 16gn 16an	.
.	16A 16d- 16g 16a	.
.	16B- 16d- 16g 16b-	.
.	16B- 16d- 16g 16b-	.
.	16BnJJ 16d- 16g 16bn	.
!!LO:LB:g=original
=22	=22	=22
16r	[4Bn [4d- [4gn [4bn	.
16EE-LL	.	.
16E-	.	.
*clefG2	*	*
16e-	.	.
16ee-JJ	16BLL] 16d-] 16g] 16b]	.
16r	16cJJ 16e- 16a- 16cc	.
*clefF4	*	*
16AAA-LL 16AA-	4r	.
16AA-	.	.
16E-JJ 16c	.	.
8GG- 8C-X 8E- 8B-- 8c-X	.	.
.	8c-X 8e- 8b-- 8cc-X	.
16r	.	.
=23	=23	=23
[[16qFFF-XLL	.	.
[16qFF-XJJ	.	.
16FFF-LL] 16FF-]]	4.a- 4.cc-X 4.ff-X 4.aa-	.
16F-X 16f-X	.	.
16F- 16f-	.	.
16C-X 16c-X	.	.
16C- 16c-	.	.
16BB-JJ 16B-	.	.
4BB- 4B-	16r	.
.	16a- 16ddn 16aa-	.
.	16a-LL 16dd 16aa-	.
.	16b-JJ 16dd 16bb-	.
16r	16b- 16dd 16bb-	.
16EEE- 16EE-	16r	.
=24	=24	=24
*^	*^	*
4ryy	16CLL 16A- 16c	4ryy	4r	.
.	16D- 16A- 16d-	.	.	.
.	16Dn 16A- 16dn	.	.	.
.	16E-JJ 16A- 16e-	.	.	.
8ryy	8r	8ryy	16dd-LL 16ee- 16aa- 16ddd-	.
.	.	.	16ccJJ 16ee- 16aa- 16ccc	.
8ryy	16EEE-LL 16EE-	4ryy	4r	.
.	16C 16c	.	.	.
8An 8c	16G- 16g-	.	.	.
.	16FJJ 16f	.	.	.
8ryy	8r	8an 8cc/	16g-LL 16gg-\	.
.	.	.	16fJJ 16ff	.
*v	*v	*	*	*
*	*v	*v	*
!!LO:LB:g=original
=25	=25	=25
16EEE-LL 16EE-/	4r	.
16D- 16B- 16d-	.	.
16D- 16B- 16d-	.	.
16G- 16B- 16g-	.	.
16G-JJ 16B- 16g-	16r	.
16r	16a- 16b- 16dd- 16aa-	.
4r	16a-LL 16b- 16dd- 16aa-	.
.	16g- 16b- 16dd- 16gg-	.
.	16g- 16b- 16dd- 16gg-	.
.	16f 16b- 16dd- 16ff	.
16r	16fJJ 16b- 16dd- 16ff	.
[16E- [16B- [16d- [16gn	16ff-X	.
=26	=26	=26
8.E-] 8.B-] 8.d-] 8.g]	16ff-XLL	.
.	16ee-	.
.	16ee-	.
16d- 16e- 16gn	16cc	.
16d-LL 16e- 16g	16cc	.
16cJJ 16e- 16a-	16a-JJ	.
16cLL 16e- 16a-	4.a-	.
16AA-	.	.
16E-	.	.
16cJ	.	.
8a-J	.	.
!!LO:LB:g=encoder
=27	=27	=27
.	16qAAA-<LL	.
.	16qAA-<	.
.	16qE-<	.
.	16qc<	.
.	16qG-<	.
.	16qg-<	.
.	16qc<	.
.	16qa-<	.
.	16qe-\	.
.	16qcc	.
.	16qg-	.
.	16qgg-	.
.	16qcc	.
.	16qaa-	.
*	*8va	*
.	16qee-	.
.	16qccc	.
.	16qgg-	.
.	16qggg-	.
.	16qccc	.
.	16qaaa-	.
.	16qggg-	.
.	16qaaa-	.
.	16qaaanX	.
.	16qbbb-	.
.	16qggg-	.
.	16qaaa-X	.
.	16qaaanX	.
.	16qbbb-	.
.	16qggg-	.
.	16qaaa-X	.
.	16qaaanX	.
.	16qbbb-	.
.	16qggg-	.
.	16qaaa-X	.
.	16qaaanX	.
.	16qbbb-	.
.	16qggg-	.
.	16qaaa-X	.
.	16qaaanX	.
.	16qbbb-	.
.	16qffff	.
.	16qeeee-	.
.	16qdddd-	.
.	16qeee-	.
.	16qeeenX	.
.	16qfff	.
.	16qggg-	.
.	16qdddd-	.
.	16qcccc	.
.	16qbbb-	.
.	16qccc	.
.	16qddd-	.
.	16qdddnX	.
.	16qeee-X	.
.	16qbbb-	.
.	16qaaa-X	.
.	16qggg-	.
.	16qgg-	.
.	16qaa-	.
.	16qaanX	.
.	16qbb-	.
.	16qfff	.
.	16qeee-	.
.	16qddd-X	.
*	*X8va	*
.	16qee-	.
.	16qeenX	.
.	16qff	.
.	16qgg-	.
.	16qddd-	.
.	16qccc	.
.	16qbb-	.
.	16qcc	.
.	16qdd-	.
.	16qddnX	.
.	16qee-X	.
.	16qbb-	.
.	16qaa-	.
.	16qgg-	.
.	16qg-	.
.	16qa-X	.
.	16qanX	.
.	16qb-	.
.	16qff	.
.	16qee-	.
.	16qgg-	.
.	16qg-	.
.	16qa-X	.
.	16qanX	.
.	16qb-	.
.	16qff	.
.	16qee-	.
.	16qgg-	.
.	16qg-	.
.	16qa-X	.
.	16qanX	.
.	16qb-	.
.	16qff	.
.	16qee-	.
.	16qgg-	.
.	16qg-	.
.	16qa-X	.
.	16qanX	.
.	16qb-	.
.	16qff	.
.	16qg-	.
.	16qgnX	.
.	16qa-X	.
.	16qff	.
.	16qee-JJ	.
2.ryy	4.b--	.
.	4.a-	.
*clefF4	*	*
!!LO:LB:g=original
=28	=28	=28
16r	4.a-	.
16DD-LL	.	.
16AA-	.	.
16F	.	.
16A-	.	.
16d-JJ	.	.
16fLL	4gn	.
16d-	.	.
16A-	.	.
[16F	.	.
16F]	8a-	.
16AA-JJ	.	.
=29	=29	=29
16r	4.ff	.
16DD-LL	.	.
16AA-	.	.
16F	.	.
16A-	.	.
16d-JJ	.	.
16fLL	4.dd-	.
16d-	.	.
16A-	.	.
16F	.	.
16D-	.	.
16DD-JJ	.	.
=30	=30	=30
16r	4.B-- 4.g- 4.dd-	.
16GG-LL	.	.
16AA-	.	.
16BB--	.	.
16C	.	.
16D-JJ	.	.
16r	4c-X 4d- 4g- 4cc-X	.
16G-LL	.	.
16A-	.	.
[16B--	.	.
16B--]	8B-- 8g- 8b--	.
16cnJJ	.	.
!!LO:LB:g=original
=31	=31	=31
16r	4.d- 4.e- 4.g- 4.b--	.
16DD-LL	.	.
16D-	.	.
16B--	.	.
16d-	.	.
[16g-JJ	.	.
16g-LL]	4.A- 4.d- 4.a-	.
16f	.	.
16f	.	.
16en	.	.
16e	.	.
[16fJJ	.	.
=32	=32	=32
*^	*	*
4.G- 4.A- 4.c	4f]	16r	.
.	.	16a-LL	.
.	.	16b-	.
.	.	16bn	.
.	8e-	16cc	.
.	.	16ee-JJ	.
4.F 4.A-	4e-	16r	.
.	.	16a-LL	.
.	.	16b-X	.
.	.	16ccJJ	.
.	16d-	16dd-	.
.	[16d-	16r	.
=33	=33	=33	=33
4.E- 4.F 4.An	4d-]	16r	.
.	.	16fLL	.
.	.	16gn	.
.	.	[16an	.
.	8c	16a]	.
.	.	16ccJJ	.
4.D- 4.F	4c	16r	.
.	.	16fLL	.
.	.	16g	.
.	.	16aJJ	.
.	8B-	8b-	.
*v	*v	*	*
!!LO:LB:g=original
=34	=34	=34
*	*^	*
16BBBB-LL 16BBB-	8r	8r	.
16FFJJ 16F	.	.	.
8r	8d- 8a- 8dd-	16aa-LL	.
.	.	16ggn	.
8r	16.a-LL 16.dd-	16.ff	.
.	32fJJk 32a-	32dd-JJk	.
4r	4.f 4.a-	4dd-	.
8r	.	8cc	.
=35	=35	=35	=35
16r	4d- 4e- 4gn	8.ccL	.
16EE-LL	.	.	.
16E-JJ	.	.	.
16r	.	16b-Jk	.
8r	8d- 8g	16dd-LL	.
.	.	16ccJJ	.
16r	4.rc	4c 4g-X 4b-	.
16AA-LL	.	.	.
16E-	.	.	.
16F	.	.	.
16G-JJ	.	16c 16e- 16a-	.
16r	.	16A- 16a-	.
*	*v	*v	*
=36	=36	=36
16r	4.F 4.d- 4.a-	.
16DD-LL	.	.
16AA-	.	.
16F	.	.
16A-	.	.
16d-JJ	.	.
16r	4En 4d- 4gn	.
16AA-LL	.	.
16En	.	.
[16d-	.	.
16d-]	8F 8a-	.
16AA-JJ	.	.
!!LO:LB:g=original
=37	=37	=37
16r	4.d- 4.a- 4.ff	.
16DD-LL	.	.
16AA-	.	.
16F	.	.
16A-	.	.
16d-JJ	.	.
16fLL	4.A- 4.f 4.dd-	.
16d-	.	.
16A-	.	.
16F	.	.
16D-	.	.
16DD-JJ	.	.
=38	=38	=38
16r	4.B-- 4.g- 4.dd-	.
16GGG-LL 16GG-	.	.
16GGG- 16GG-	.	.
16AAA- 16AA-	.	.
24BBB-- 24BB--	.	.
24CC 24C	.	.
24DD-JJ 24D-	.	.
16r	4c-X 4d- 4g- 4cc-X	.
16GG-LL 16G-	.	.
16AA- 16A-	.	.
[16BB-- [16B--	.	.
16BB--] 16B--]	8B-- 8g- 8b--	.
16CnJJ 16cn	.	.
=39	=39	=39
4.D- 4.d-	16r	.
.	16B--LL 16g- 16b--	.
.	16B--J 16g- 16dd-	.
.	32r	.
.	32B--KL 32g- 32cc-X	.
.	16B-- 16g- 16cc-	.
.	16B--JJ 16g- 16b--	.
16g-LL	4.A- 4.d- 4.a-	.
16f	.	.
16f	.	.
16en	.	.
16e	.	.
[16fJJ	.	.
!!LO:LB:g=original
=40	=40	=40
*^	*	*
4.G- 4.A- 4.c	4f]	16r	.
.	.	16a-LL	.
.	.	16b-	.
.	.	16bn	.
.	8e-	16cc	.
.	.	16ee-JJ	.
4F 4A-	4e-	16r	.
.	.	16a-LL	.
.	.	16b-X	.
.	.	16ccJJ	.
16rAA	16d-	8dd-	.
16D-	16d-	.	.
*clefG2	*	*	*
=41	=41	=41	=41
*	*	*^	*
4.c-X 4.d- 4.f	4b-	4ryy	16r	.
.	.	.	16dd-LL	.
.	.	.	16ee-	.
.	.	.	16een	.
.	8a-	8ryy	16ff	.
.	.	.	16aa-JJ	.
4.G- 4.d-	4a-	8ryy	16r	.
.	.	.	16dd-\LL	.
.	.	8cc-X/L	16ee-X	.
.	.	.	16ffJJ	.
.	8g-	8b-J	8gg-\	.
*v	*v	*	*	*
*clefF4	*	*	*
=42	=42	=42	=42
16EE-LL 16E-	8r	8r	.
16BB-JJ 16B-	.	.	.
8r	8g- 8dd- 8gg-	16ddd-LL	.
.	.	16ccc	.
8r	16.dd-LL 16.gg-	16.bb-	.
.	32b-JJk 32dd-	32gg-JJk	.
4r	4.b- 4.dd-	4gg-	.
8r	.	8ff	.
!!LO:LB:g=original
=43	=43	=43	=43
16r	4g- 4a- 4cc	8.ffL	.
16AA-LL	.	.	.
16A-JJ	.	.	.
16r	.	16ee-Jk	.
8r	8g- 8cc	16gg-LL	.
.	.	16ffJJ	.
16r	4.f	4.dd-	.
16DD-LL	.	.	.
16AA-	.	.	.
16FJ	.	.	.
8d-J	.	.	.
*	*v	*v	*
=44	=44	=44
16r	4.A-	.
16DD-LL	.	.
16AA-	.	.
16G-	.	.
16c	.	.
16a-JJ	.	.
16r	4Gn	.
16AA-LL	.	.
16G-X	.	.
16c	.	.
16g-	8A-	.
*clefG2	*	*
16ccJJ 16aa-	.	.
*clefF4	*	*
=45	=45	=45
16r	4.f	.
16DD-LL	.	.
16AA-	.	.
16F	.	.
16A-	.	.
16fJJ	.	.
16FLL	4.d-	.
*clefG2	*	*
16a-	.	.
16aa-	.	.
16aa-J	.	.
*8va	*	*
8aaaa-J	.	.
*X8va	*	*
*clefF4	*	*
!!LO:LB:g=original
=46	=46	=46
16DD-	8r	.
8AA-	.	.
.	8G-L 8An	.
8AA-X	.	.
.	8G-J 8B-	.
8A-	.	.
.	8G-L 8Bn 8f	.
*clefG2	*	*
8a-	.	.
.	8G- 8c 8e-	.
8aa-	.	.
.	8a-J	.
*8va	*	*
16aaa-	.	.
*X8va	*	*
*clefF4	*	*
=47	=47	=47
16r	4.F 4.A- 4.d- 4.a-	.
16DD-LL	.	.
16AA-	.	.
16F	.	.
16A-	.	.
16FJJ	.	.
16d-LL	4r	.
16a-	.	.
*clefG2	*	*
16d-	.	.
16a-	.	.
16dd-	8r	.
16aa-JJ	.	.
*clefF4	*	*
=48	=48	=48
16r	4.a-	.
16D-/LL	.	.
16A-	.	.
16g->	.	.
16cc>	.	.
16aa->JJ	.	.
16r	4gn	.
16A-LL	.	.
*clefG2	*	*
16g-X	.	.
16cc	.	.
16gg-	8a-	.
16cccJJ 16aaa-	.	.
*clefF4	*	*
!!LO:LB:g=original
=49	=49	=49
16r	4.ff	.
16D-LL	.	.
16A-	.	.
*clefG2	*	*
16f	.	.
16a-	.	.
16ffJJ	.	.
16fLL	4.dd-	.
16aa-	.	.
*8va	*	*
16aaa-	.	.
16aaaa-JJ	.	.
*X8va	*	*
8r	.	.
*clefF4	*	*
=50	=50	=50
16D-	8r	.
8A-	.	.
.	8g-L 8an	.
8A-X	.	.
.	8g-J 8b-	.
*clefG2	*	*
8a-	.	.
.	8g-L 8bn 8ff	.
8aa-	.	.
.	8g- 8cc 8ee-	.
*8va	*	*
8aaa-	.	.
.	8aa-J	.
16aaaa-	.	.
*X8va	*	*
=51	=51	=51
88aa->LL	8aa-	.
88dd->	.	.
88a->	.	.
88f>	.	.
88d->	.	.
*clefF4	*	*
88A-/	.	.
88D-	.	.
88A-	.	.
88d->	.	.
88f>	.	.
88a->JJ	.	.
4ryy	4dd-	.
.	16qcc\LL	.
.	16qdd-	.
.	16qee-JJ	.
96eenX>LL	8eenX	.
96b--X>	.	.
96enX>	.	.
96B--X>	.	.
96en>	.	.
96b-->	.	.
96b-X>	.	.
96bnX>	.	.
96cc>	.	.
96dd->	.	.
96ddnX>	.	.
96ee-X>JJ	.	.
4ryy	4eenX	.
.	16qee-X\LL	.
.	16qeenXJJ	.
!!LO:LB:g=original
=52	=52	=52
64ff>LL	8ff	.
64dd->	.	.
64a->	.	.
64d->	.	.
64a->	.	.
64dd->	.	.
64ff>	.	.
64aa->JJ	.	.
4ryy	4ddd-	.
.	16qccc\LL	.
.	16qddd-	.
.	16qeee-JJ	.
*8va	*8va	*
96eeenX>LL	8eeenX	.
96bb--X>	.	.
96eenX>	.	.
96b--X>	.	.
96een>	.	.
96bb-->	.	.
96bb-X>	.	.
96bbnX>	.	.
96ccc>	.	.
96ddd->	.	.
96dddnX>	.	.
96eee-X>JJ	.	.
4ryy	4eeenX	.
.	16qeee-X\LL	.
.	16qeeenXJJ	.
=53	=53	=53
64fff>LL	8fff	.
64ddd->	.	.
64aa->	.	.
64dd->	.	.
64aa->	.	.
64ddd->	.	.
64fff>	.	.
64aaa->JJ	.	.
4ryy	4dddd-	.
4.ryy	192dddd-LL	.
.	192eeee-	.
.	192eeeenX	.
.	192ffff	.
.	192dddd-	.
.	192eeee-X	.
.	192eeeenX	.
.	192ffff	.
.	192dddd-	.
.	192eeee-X	.
.	192eeeenX	.
.	192ffff	.
.	192dddd-	.
.	192eeee-X	.
.	192eeeenX	.
.	192ffff	.
.	192dddd-	.
.	192eeee-X	.
.	192eeeenX	.
.	192ffff	.
.	192dddd-	.
.	192eeee-X	.
.	192eeeenX	.
.	192ffffJJ	.
.	4aaaa-	.
*X8va	*X8va	*
!!LO:LB:g=original
=54	=54	=54
!! M4/4 used to accommodate Scriabin's use of quarter notes; time signature not original.
*M4/4	*M4/4	*
[[16qFLL	.	.
[[16qe-	.	.
[16qan>JJ	.	.
4F]] 4e-]] 4a>] 4ff>	1ryy	.
[[16qG-LL	.	.
[[16qd-	.	.
[16qb->JJ	.	.
4G-]] 4d-]] 4b->] 4ff>	.	.
[[16qCLL	.	.
[[16qG-	.	.
[[16qB-	.	.
[[16qe->	.	.
[16qb->JJ	.	.
4C]] 4G-]] 4B-]] 4e->]] 4b->] 4ee->	.	.
[[16qCLL	.	.
[[16qG-	.	.
[[16qB--	.	.
[[16qen	.	.
[[16qg->	.	.
[16qb-->JJ	.	.
4C]] 4G-]] 4B--]] 4e]] 4g->]] 4b-->] 4een>	.	.
=55	=55	=55
*M6/8	*M6/8	*
16DD-LL	4.r	.
16AA-	.	.
16D-	.	.
16F	.	.
16A-	.	.
16d-JJ	.	.
4.r	16fLL	.
.	16a-	.
.	16dd-	.
.	16ff	.
.	16aa-	.
.	16ddd-JJ	.
=56	=56	=56
4r	4fff	.
8r	8r	.
4F 4A-	4d- 4a-	.
8r	8r	.
=57	=57	=57
2.DD- 2.AA-	2.F 2.d-	.
==	==	==
*-	*-	*-
!!!filter: flipper -a
!!!RDF**kern: < = below
!!!RDF**kern: > = above
!!!system-decoration: {(*)}
!!!ENC: Bryan Jacob Bell
!!!END: November 2021 to April 2022
!!!PED: Konstantin Igumnov and Yakov Milstein
!!!PTL: A.N. Skryabin: Polnoe sobranie sochinenii dlia fortepiano (Muzgiz)
